X: 1033
T: Alston Flower Show
R: hornpipe
M: 4/4
K: Gmajor
|:dc|BdAd Ggfd|edef g2dc|Bg (3edc BGFG|Ad^cd A2d=c|
BdAd Ggfd|edef g2dc|Bg (3edc BGAF|G4 G2:|
|:cB|ADEF GFGc|(3BAG ce dGBd|egfa gfed|fed^c d3=c|
BdAd Ggfd|edef g2dc|Bg (3edc BGAF|G4 G2:|

